X: 40
T: Siege of Ennis
M: 2/4
L: 1/8
Q: 300
R: Polka
K: D
f2 f>e|dB B2|Ad d/2c/2d/2e/2|fe ea|
f2 f>e|dB B2|Aa af|ed d>e :|
fd ed|fd ed|fa af|ed e>e|
fd ed|fd ed|fa af|ed d>e :|
